!!!COM: Schubert, Franz Peter
!!!CDT: 1797-1828
!!!OTL: An die Musik
!!!OPS: Opus 88
!!!ONM: No. 4
!!!SCT: DV 547
!!!YOR: Franz Schubert: Selected songs
!!!PPE: Max Friedlaender
!!!PSR: C.F. Peters 
!!!PSP: Frankfurt, London, New York
!!!PSD: n.d.
!!!PPG: pp.87-89
!!!ODT: 1817///
!!!ONB: This song was transcribed from an edition for medium voice, 
!!!ONB:  where it had been transposed down to C Major.
!!!ONB: It was encoded in C Major, then transposed up to the original key of D Major.
**kern
*M2/2
*MM[Maessig]
*D:
*k[f#c#]
=1
1r
=2
1r
=3
4r
4a
4dd
4dd
=4
2.f#
4b
=5
(8Qb
4.d)
8d
(8f#
8e)
(8d
8e)
=6
4f#
4d
2r
=7
4r
4a
4b
4b
=8
4.c#
8c#
4.d
8d
=9
(8f#
8e)
(8d
8e)
2f#
=10
1r
=11
4r
4dd
4.ee
8g
=12
(4f#
2a)
(8b
8cc#)
=13
4.dd
8ff#
(8ee
8cc#)
(8a
8g)
=14
4g
4f#
4r
4a
=15
4.b
8b
4b
(8cc#
8dd)
=16
4.dd
8dd
4.ff#
8ee
=17
8Qee
2dd
8r
8b
8cc#
8dd
=18
(4dd
8f#)
8f#
(4a
8c#)
8c#
=19
2d
2r
=20
1r
=21
1r
=22
1r
=23
4r
4a
4dd
4dd
=24
2.f#
4b
=25
(8Qb
4.d)
8d
(8f#
8e)
(8d
8e)
=26
4f#
4d
2r
=27
4r
4a
4b
4b
=28
4.c#
8c#
4.d
8d
=29
(8f#
8e)
(8d
8e)
2f#
=30
1r
=31
4r
4dd
4.ee
8g
=32
(4f#
2a)
8b
8cc#
=33
4.dd
8ff#
(8ee
8cc#)
(8a
8g)
=34
4g
4f#
4r
4a
=35
4.b
8b
4b
(8cc#
8dd)
=36
4.dd
8dd
4.ff#
8ee
=37
(4Qee
2dd)
8r
8b
8cc#
8dd
=38
(4dd
8f#)
8f#
(4a
8c#)
8c#
=39
2d
2r
=40
1r
=41
1r
=42
1r
=43
1r
==
*-
!!!EMD: Paul von Hippel (1998/10/21/)
!!!EEV: Version 2.0
